X: 10919
T: Drowsy Maggie
R: reel
M: 4/4
K: Edorian
E2 Bd cEBE|E2 BG FADF|E2 Bd cEBc|dfec dBAF|
E2 Be dEcE|E2 BG FADF|E2 Bd cEBc|dfec dBAc||
d2 fd {e}dcBd|cAeA ceAc|d2 fd {e}dcBA|^GABc dAFA|
d2 fd {e}dcBd|cdef gbag|fgec dcBA|^GABc dAFA|
d2 fd {e}dcBd|cAeA ceAc|d2 fd {e}dcB^g|abe^g aece|
d2 fd {e}dcBd|cdef gbag|fgec dcBA|^GABc dAFA||

